img/main/top-places/comments.svg

<svg xmlns="http://www.w3.org/2000/svg" fill="none" viewBox="0 0 14 14"><path fill="#fff" fill-rule="evenodd" d="M12.6 0c.77 0 1.393.63 1.393 1.4L14 14l-2.8-2.8H1.4c-.77 0-1.4-.63-1.4-1.4V1.4C0 .63.63 0 1.4 0h11.2zM2.8 8.4h8.4V7H2.8v1.4zm8.4-2.1H2.8V4.9h8.4v1.4zM2.8 4.2h8.4V2.8H2.8v1.4z" clip-rule="evenodd"/></svg>

<svg width="14" height="14" viewBox="0 0 14 14" fill="none" xmlns="http://www.w3.org/2000/svg">
<path fill-rule="evenodd" clip-rule="evenodd" d="M12.6 0C13.37 0 13.993 0.63 13.993 1.4L14 14L11.2 11.2H1.4C0.63 11.2 0 10.57 0 9.8V1.4C0 0.63 0.63 0 1.4 0H12.6ZM2.8 8.4H11.2V7H2.8V8.4ZM11.2 6.3H2.8V4.9H11.2V6.3ZM2.8 4.2H11.2V2.8H2.8V4.2Z" fill="white"/>
</svg>
